X: 071
T: Miss Falconer's Strathspey
C: by John Pringle
B: John Pringle "Collection of Reels Strathspeys & Jigs", 1801 p.7#1
Z: 2011 John Chambers <jc:trillian.mit.edu>
Q: "Slow"
R: Strathspey
M: C
L: 1/8
K: Em
V: 1
|: E>F~G>A B.B,.B,.B, | E>FGF E^DE2 \
| c>A (G/F/G/A/) BG {F}E2 | AB/c/ (B/^d/).e/.A/. (G/F/)B/B,/ E2 :|
|: ggB^d e=d/c/~B2 | A>c (B/A/)(G/F/) (G/E/).G/.^d/ e2 \
| ggBe e/d/c/B/ AB/c/ | (B/G/F/A/) (G/E/)B/^d/ eEE2 :|
V: 2 clef=bass middle=d
|: gfe^d eBE2 | gabB eBE2 | [a2f2^d2][ge]d eBeE | c'b/a/ge bBe2 :|
|: zgdB cdgG | d2ga bBeE | zgdB c^cdz | G^deB | eBE2 :|

%%sep 2 1 500

